X: 38461
T: Stay Where You Are
R: jig
M: 6/8
K: Dmajor
|:dcd ABc|d2A AGE|dcd ABc|def gfe|
dcd ABc|d2A AGE|GAG EDE|c3 ABc:|
|:d2e fed|ecA AcA|d2e fed|faf gfe|
d2e fed|ecA AGE|GAG EDE|c3 ABc:|
|:d2A c2A|d2A ABc|d2A c2A|def gfe|
d2A =c2A|B2G A2F|GAG EDE|c3 ABc:|

